!!!COM: Bach, Johann Sebastian
!!!OPR: Suite No. 1 in G Major
!!!OTL: Courante
!!!OPS: BWV 1007
!!!ONM: 3
**kern
*staff1
*clefF4
*k[f#]
*G:
*M3/4
8G
=1
8GL
8DJ
8GGL
(16BL
16cJJ
16dLL
16c
16B
16A)JJ
=2
8BL
8DJ
8GGL
(16GL
16AJJ
8B)L
8GJ
=3
8EL
8CJ
8CC/L
(16A\L
16BJJ
16cLL
16B
16A
16G)JJ
=4
8F#L
8DJ
8DDL
(16DL
16EJJ
16F#LL
16G
16A
16B)JJ
=5
(16cLL
16B
16c)
16AJJ
(16cLL
16B
16c)
16AJJ
16DLL
16c
16B
16AJJ
=6
(16BLL
16A
16B)
16GJJ
(16BLL
16A
16B)
16GJJ
16CLL
16B
16A
16GJJ
=7
(16F#LL
16A
16d)
16DJJ
8GL
8BBJ
8DDL
8F#J
=8
*^
4.GG/	4.G/
*v	*v
(16BLL
16AJJ
16GLL
16F#
16E
16D)JJ
=9
8eL
8c#J
8AL
(16BL
16c#)JJ
16dLL
(16F#
16E
16D)JJ
=10
8AAL
8dJ
8c#tL
(16BL
16A)JJ
16dLL
16A
16B
16F#JJ
=11
(16GLL
16F#
16G)
16EJJ
(16GLL
16F#
16G)
16EJJ
16AALL
16G
16F#
16EJJ
=12
(16F#LL
16E
16F#)
16DJJ
(16F#LL
16E
16F#)
16DJJ
16GGLL
16F#
16E
16DJJ
=13
(16dLL
16c#
16B
16A)JJ
8dL
(16c#L
16B)JJ
16ALL
16G
16F#
16EJJ
=14
(16DLL
16E
16D)
16F#JJ
(16DLL
16E
16D)
16GJJ
(16DLL
16E
16D)
16AJJ
=15
(16DLL
16E
16D)
16BJJ
(16DLL
16E
16D)
16c#JJ
(16DLL
16E
16D)
16dJJ
=16
(16GLL
16F#
16E
16DJJ
16C#LL
16BB
16AA)
16GJJ
8.F#tL
16EJ
=17
(16ALL
16G
16B
16AJJ
16GLL
16F#
16E
16D)JJ
8AAL
8C#J
=18
2DD
8r
=:|:
8A
=19
8AL
8F#J
8DL
(16EL
16F#JJ
16GLL
16F#
16E
16D)JJ
=20
8dL
8F#J
8CL
(16BBL
16CJJ
16DLL
16C
16BB
16AA)JJ
=21
16BBLL
(16G
16A
16BJJ
16cLL
16B
16A
16G)JJ
8F#L
8dJ
=22
8BL
8GJ
8GGL
(16BL
16AJJ
16cLL
16B
16A
16G)JJ
=23
8AL
8F#J
16D#LL
(16A
16B
16cJJ
16BLL
16A
16G
16F#)JJ
=24
8GL
8EJ
8EE\L
(16GL
16F#JJ
16ALL
16G
16F#
16E)JJ
=25
(16FnLL
16E
16F)
16AJJ
(16FLL
16E
16F)
16AJJ
16cLL
16B
16c
16AJJ
=26
[4d#
16d#]LL
(16cn
16B
16A)JJ
(16GLL
16F#)
(16A
16D#)JJ
=27
8GGL
8BJ
(16ALL
16G)
(16F#
16E)JJ
8BBL
8D#J
=28
4.EE
(16ELL
16F#JJ
16GLL
16A
16B
16c)JJ
=29
8dL
8FnJ
8BBL
(16EL
16FnJJ
16GLL
16F
16E
16D)JJ
=30
8EL
8CJ
8CCL
(16CL
16DJJ
16ELL
16F#X
16G
16E)JJ
=31
(16C#LL
16G
16A)
16GJJ
16ALL
16G
16C#
16GJJ
16C#LL
16G
16A
16GJJ
=32
(16CnLL
16F#
16A)
16F#JJ
16ALL
16F#
16C
16F#JJ
16CLL
16F#
16A
16F#JJ
=33
16BBLL
(16D
16E
16Fn)JJ
16GG\LL
(16Fn
16E
16D)JJ
16ELL
(16d
16c
16B)JJ
=34
16F#XLL
(16A
16B
16c)JJ
16DLL
(16c
16B
16A)JJ
8BL
8GGJ
=35
8CC/L
(16B\L
16AJJ
16cLL
16B
16A
16G)JJ
8DL
8F#J
=36
(16GGLL
16AA
16GG)
16BBJJ
(16GGLL
16AA
16GG)
16CJJ
(16GGLL
16AA
16GG)
16DJJ
=37
(16GGLL
16AA
16GG)
16EJJ
(16GGLL
16AA
16GG)
16F#JJ
(16GGLL
16AA
16GG)
16GJJ
=38
(16cLL
16B
16A
16GJJ
16F#LL
16E
16D)
16cJJ
8.BtL
16AJ
=39
(16dLL
16c
16d)
16BJJ
(16dLL
16c
16d)
16BJJ
16ELL
16d
16c
16BJJ
=40
(16cLL
16B
16c)
16AJJ
(16cLL
16B
16c)
16AJJ
16DLL
16c
16B
16AJJ
=41
16BLL
16A
16B
16GJJ
16CLL
16B
16A
16GJJ
8DL
8F#J
=42
*^
2GG/	2G/
*v	*v
8r
=:|
*-
!!!ENC: Bryan Jacob Bell
!!!END: 19 December 2023
